X:503
T:O'Rielly's Fancy
C:O'Reilly.
M:C|
L:1/8
K:G
"Em"E2 (EF) GFGE|"D"DEFG AFDF|"Em"EDEF GFGA|"D"((3Bcd) Ac "Em"(BE) E2:|\
"Em"BcAc BeeB|"Am"cBAc "Em"(BE) E2|
BcAc Beef|gefd e2 e2|BcAc BeeB|"Am"cBAc "Em"(BE) E2|\
BcAc Beef|"D"((3gab) af e2 e2|]
